X:14
T


*****************************


700 4 0.092693575 

<star>X92
M:2/4
K:G
B2d | c2c2 | B2B2 | B2B2 | B2B2 | B2B2 | B2B2 | B2B2 | B2B2 | B2B2 | B2B2 | B2B2 | B2


*****************************


800 4 1.7867103 

<star>X92
M:2/4
K:G
B2 BA|B2 B2|B2 B2|B2 B2|B2 B2|B2 B2|B2 B2|B2 B2|B2 B2|B2 B2|B2 B2|B2 B2|B2 B2|B2 B2|B


*****************************


900 4 1.0873604 

<start>
